src/assets/duotone/SmartHome.svg

<svg width="24" height="24" viewBox="0 0 24 24"  xmlns="http://www.w3.org/2000/svg">
<path opacity="0.4" d="M10.0698 3.01027L3.13979 8.56026C2.35979 9.18026 1.85978 10.4902 2.02978 11.4702L3.35976 19.4303C3.59976 20.8503 4.95977 22.0003 6.39977 22.0003H17.5998C19.0298 22.0003 20.3998 20.8403 20.6398 19.4303L21.9698 11.4702C22.1298 10.4902 21.6298 9.18026 20.8598 8.56026L13.9298 3.02028C12.8598 2.16028 11.1298 2.16027 10.0698 3.01027Z" />
<path d="M12.3699 17.1201C11.9599 17.1201 11.6299 16.7901 11.6199 16.3901C11.5899 15.0401 10.6999 14.1501 9.34986 14.1201C8.93986 14.1101 8.60985 13.7701 8.61985 13.3501C8.62985 12.9401 8.95985 12.6201 9.36985 12.6201C9.37985 12.6201 9.37987 12.6201 9.38987 12.6201C11.5399 12.6701 13.0799 14.2001 13.1199 16.3501C13.1299 16.7601 12.7999 17.1101 12.3899 17.1201C12.3899 17.1201 12.3799 17.1201 12.3699 17.1201Z" />
<path d="M15.3698 17.1201C14.9598 17.1201 14.6198 16.7901 14.6198 16.3801C14.6098 15.7201 14.4998 15.0901 14.2998 14.5001C13.7898 13.0401 12.6998 11.9601 11.2398 11.4401C10.6498 11.2301 10.0198 11.1201 9.35983 11.1201C8.94983 11.1201 8.60984 10.7801 8.61984 10.3601C8.61984 9.95011 8.95984 9.62012 9.36984 9.62012H9.37985C10.2099 9.63012 10.9998 9.77015 11.7398 10.0302C13.6298 10.7002 15.0398 12.1101 15.7098 14.0001C15.9698 14.7401 16.1098 15.5401 16.1198 16.3601C16.1298 16.7801 15.7998 17.1201 15.3698 17.1201C15.3798 17.1201 15.3798 17.1201 15.3698 17.1201Z" />
<path d="M9.37988 17.3799C8.81988 17.3799 8.37988 16.9299 8.37988 16.3799C8.37988 15.8299 8.82988 15.3799 9.37988 15.3799C9.92988 15.3799 10.3799 15.8299 10.3799 16.3799C10.3799 16.9299 9.92988 17.3799 9.37988 17.3799Z" />
</svg>

<?xml version="1.0" encoding="UTF-8"?>
<svg width="24" height="24" viewBox="0 0 24 24" xmlns="http://www.w3.org/2000/svg">
 <path d="m10.07 3.0103-6.93 5.55c-0.78 0.62-1.28 1.9299-1.11 2.9099l1.33 7.9601c0.24 1.42 1.6 2.57 3.04 2.57h11.2c1.43 0 2.8-1.16 3.04-2.57l1.33-7.9601c0.16-0.98-0.34-2.2899-1.11-2.9099l-6.93-5.54c-1.07-0.86-2.8-0.86001-3.86-0.01001z" opacity=".4"/>
 <path d="m12.37 17.12c-0.41 0-0.74-0.33-0.75-0.73-0.03-1.35-0.92-2.24-2.27-2.27-0.41-0.01-0.74001-0.35-0.73001-0.77 0.01-0.41 0.34-0.73 0.75-0.73h0.02002c2.15 0.05 3.69 1.58 3.73 3.73 0.01 0.41-0.32 0.76-0.73 0.77h-0.02z"/>
 <path d="m15.37 17.12c-0.41 0-0.75-0.33-0.75-0.74-0.01-0.66-0.12-1.29-0.32-1.88-0.51-1.46-1.6-2.54-3.06-3.06-0.59-0.21-1.22-0.32-1.88-0.32-0.41 0-0.74999-0.34-0.73999-0.76 0-0.40999 0.34-0.73998 0.75-0.73998h0.01001c0.83005 0.01 1.62 0.15003 2.36 0.41008 1.89 0.67 3.3 2.0799 3.97 3.9699 0.26 0.74 0.4 1.54 0.41 2.36 0.01 0.42-0.32 0.76-0.75 0.76 0.01 0 0.01 0 0 0z"/>
 <path d="m9.3799 17.38c-0.56 0-1-0.45-1-1s0.45-1 1-1 1 0.45 1 1-0.45002 1-1 1z"/>
</svg>
